svgs/thin/outlet.svg

<svg xmlns="http://www.w3.org/2000/svg" viewBox="0 0 448 512"><!--! Font Awesome Pro 6.3.0 by @fontawesome - https://fontawesome.com License - https://fontawesome.com/license (Commercial License) Copyright 2023 Fonticons, Inc. --><path d="M224 272c-17.66 0-32 14.36-32 32v24c0 4.422 3.594 8 8 8h48c4.406 0 8-3.578 8-8V304C256 286.4 241.7 272 224 272zM240 320h-32V304C208 295.2 215.2 288 224 288s16 7.172 16 16V320zM160 192C155.6 192 152 195.6 152 200v64C152 268.4 155.6 272 160 272c4.42 0 8-3.582 8-8v-64C168 195.6 164.4 192 160 192zM288 192c-4.418 0-8 3.582-8 8v64c0 4.418 3.582 8 8 8c4.42 0 8-3.582 8-8v-64C296 195.6 292.4 192 288 192zM384 31.1H64c-35.35 0-64 28.65-64 63.1v320c0 35.35 28.65 64 64 64h320c35.35 0 64-28.65 64-64v-320C448 60.65 419.3 31.1 384 31.1zM432 416c0 26.47-21.53 48-48 48H64c-26.47 0-48-21.53-48-48V96c0-26.47 21.53-48 48-48h320c26.47 0 48 21.53 48 48V416zM319.3 128l-.0371 16c.7715 0 1.609 .3447 2.088 .8018C351.4 174.5 368 213.1 368 256c0 42.04-16.58 81.54-46.54 111.1c-.6328 .6074-1.545 .9434-2.566 .9434H129.1c-1.021 0-1.934-.3359-2.418-.7988C96.58 337.5 80 298 80 256c0-42.04 16.58-81.54 46.54-111.1c.625-.5977 1.424-.9434 2.551-.9434l190.1-.0029L319.3 128H128.7c-4.975 0-9.719 1.988-13.28 5.404C83.79 164.6 64 207.9 64 255.1c0 48.1 19.79 91.4 51.46 122.6c3.646 3.5 8.541 5.4 13.65 5.4h189.8c5.104 0 10-1.9 13.65-5.4C364.2 347.4 384 304.1 384 255.1c0-48.1-19.79-91.4-51.46-122.6C328.1 129.1 324.2 128 319.3 128z"/></svg>

<svg xmlns="http://www.w3.org/2000/svg" viewBox="0 0 448 512"><!-- Font Awesome Pro 6.0.0-alpha2 by @fontawesome - https://fontawesome.com License - https://fontawesome.com/license (Commercial License) --><path d="M224 272C206.344 272 192 286.359 192 304V328C192 332.422 195.594 336 200 336H248C252.406 336 256 332.422 256 328V304C256 286.359 241.656 272 224 272ZM240 320H208V304C208 295.172 215.188 288 224 288S240 295.172 240 304V320ZM160 192C155.582 192 152 195.582 152 200V264C152 268.418 155.582 272 160 272C164.42 272 168 268.418 168 264V200C168 195.582 164.42 192 160 192ZM288 192C283.582 192 280 195.582 280 200V264C280 268.418 283.582 272 288 272C292.42 272 296 268.418 296 264V200C296 195.582 292.42 192 288 192ZM384 32H64C28.654 32 0 60.654 0 96V416C0 451.346 28.654 480 64 480H384C419.348 480 448 451.346 448 416V96C448 60.654 419.348 32 384 32ZM432 416C432 442.467 410.467 464 384 464H64C37.533 464 16 442.467 16 416V96C16 69.533 37.533 48 64 48H384C410.467 48 432 69.533 432 96V416ZM319.262 128V144C320.033 144 320.836 144.346 321.314 144.803C351.42 174.463 368 213.953 368 256C368 298.045 351.42 337.535 321.463 367.053C320.83 367.66 319.918 367.996 318.896 367.996H129.105C128.084 367.996 127.172 367.66 126.688 367.197C96.58 337.535 80 298.043 80 256C80 213.955 96.58 174.463 126.537 144.947C127.162 144.35 127.961 144.004 129.088 144.004H129.105L319.191 144.002L319.262 128H319.26C319.139 128 319.018 128.002 318.896 128.004H129.105C128.984 128.002 128.863 128 128.742 128C123.768 128 119.02 129.988 115.459 133.404C83.793 164.602 64 207.9 64 256C64 304.098 83.793 347.396 115.459 378.596C119.105 382.096 124 383.996 129.105 383.996H318.896C324 383.996 328.896 382.096 332.543 378.596C364.209 347.396 384 304.098 384 256C384 207.9 364.209 164.602 332.543 133.404C328.982 129.988 324.234 128 319.262 128Z"/></svg>
